X:1277
T:Bear Island Reel
T:R'il Bheara
M:C|
L:1/8
S:Session
R:reel
Z:From Mel Bay's Irish Tune Book.  Added by Alf.warnock@nrc.ca
K:Edor
EB^GB A^GEc|dBcA Beec|d2fd AFDF|GEFD EDB,D|
~E3F GFGA|BAGA (3Bcd ef|g2fg efge|1 dBAF E3D:|2 dBAF E3A||
|:Beef ga/g/fe|dBAG FDD2|Beef gefd|Be^df e3f|
edBc decd|BcdB AFDF|GB~B2 AGFA|GEFD E4|]


